Sources/FrostedUI/Resources/Icons.xcassets/shoppingBag24.imageset/shopping-bag-24.svg

<svg width="24" height="24" viewBox="0 0 24 24" fill="none" xmlns="http://www.w3.org/2000/svg" data-fui-icon="true">
  <path
    d="M16.4749 1.25C19.4288 1.2501 21.9025 3.48846 22.1965 6.42773L23.1965 16.4277C23.535 19.8126 20.8766 22.7499 17.4749 22.75H6.52563C3.12381 22.75 0.465461 19.8127 0.803955 16.4277L1.80396 6.42773C2.09797 3.48841 4.57162 1.25 7.52563 1.25H16.4749ZM7.52563 2.75C5.3422 2.75 3.51341 4.40455 3.29614 6.57715L2.29614 16.5771C2.04598 19.079 4.01126 21.25 6.52563 21.25H17.4749C19.9891 21.2499 21.9545 19.079 21.7043 16.5771L20.7043 6.57715C20.4871 4.40461 18.6582 2.7501 16.4749 2.75H7.52563ZM16.0002 6.25C16.4144 6.25012 16.7502 6.58586 16.7502 7V7.02344C16.7501 7.03516 16.7499 7.05123 16.7493 7.07031C16.748 7.10842 16.7451 7.16103 16.7405 7.22559C16.7312 7.35481 16.7136 7.53452 16.678 7.74805C16.6073 8.17205 16.464 8.74909 16.1711 9.33496C15.8767 9.92389 15.423 10.5362 14.7288 10.999C14.0298 11.465 13.1314 11.75 12.0002 11.75C10.8691 11.75 9.9707 11.465 9.27173 10.999C8.57746 10.5362 8.12383 9.92391 7.82935 9.33496C7.53647 8.74908 7.39318 8.17207 7.32251 7.74805C7.28693 7.53451 7.26925 7.35481 7.26001 7.22559C7.2554 7.16102 7.2525 7.10842 7.25122 7.07031C7.25058 7.05123 7.25043 7.03516 7.25024 7.02344V7.00098C7.25308 7.00059 7.29787 7 8.00024 7H7.25024C7.25024 6.58579 7.58603 6.25 8.00024 6.25C8.41404 6.25011 8.74972 6.58533 8.75024 6.99902C8.7503 7.00239 8.75089 7.00953 8.75122 7.01953C8.7519 7.03994 8.75293 7.07372 8.7561 7.11816C8.76249 7.2076 8.77612 7.3408 8.80298 7.50195C8.85731 7.82779 8.96423 8.25122 9.17114 8.66504C9.37665 9.07589 9.67323 9.46395 10.1038 9.75098C10.5298 10.0349 11.1316 10.25 12.0002 10.25C12.8689 10.25 13.4708 10.035 13.8967 9.75098C14.3272 9.46394 14.6239 9.07588 14.8293 8.66504C15.0362 8.25123 15.1432 7.82777 15.1975 7.50195C15.2244 7.3408 15.238 7.20759 15.2444 7.11816C15.2476 7.07372 15.2486 7.03994 15.2493 7.01953C15.2496 7.00954 15.2502 7.00239 15.2502 6.99902C15.2508 6.58526 15.5864 6.25 16.0002 6.25Z"
    fill="currentColor"
  />
</svg>

<svg xmlns="http://www.w3.org/2000/svg" width="24" height="24" fill="none" data-fui-icon="true" viewBox="0 0 24 24"><path fill="currentColor" d="M16.475 1.25a5.75 5.75 0 0 1 5.721 5.178l1 10a5.75 5.75 0 0 1-5.721 6.322H6.525a5.75 5.75 0 0 1-5.721-6.322l1-10A5.75 5.75 0 0 1 7.526 1.25zm-8.95 1.5a4.25 4.25 0 0 0-4.229 3.827l-1 10a4.25 4.25 0 0 0 4.23 4.673h10.949a4.25 4.25 0 0 0 4.23-4.673l-1-10a4.25 4.25 0 0 0-4.23-3.827zM16 6.25a.75.75 0 0 1 .75.75v.023a2 2 0 0 1-.01.203 5.67 5.67 0 0 1-.57 2.11 4.26 4.26 0 0 1-1.441 1.663c-.7.466-1.598.751-2.729.751-1.13 0-2.03-.285-2.728-.751a4.26 4.26 0 0 1-1.443-1.664 5.7 5.7 0 0 1-.578-2.265v-.069L8 7h-.75a.75.75 0 0 1 1.5-.001v.02l.005.1c.006.089.02.222.047.383.054.326.161.75.368 1.163.206.41.502.799.933 1.086.426.284 1.028.499 1.896.499.869 0 1.47-.215 1.897-.499.43-.287.727-.675.932-1.086.207-.414.314-.837.368-1.163.027-.161.041-.294.047-.384q.005-.067.005-.098l.001-.021A.75.75 0 0 1 16 6.25"/></svg>
